X:10
T:Rita Keane's Jig
K:ADor
M:6/8
L:1/8
EAA EAA | BAB ~G3|Bee edB|dBA GED|\
EAA EAA BAB ~G3|Bee edB|dBA ~A2 z :|
eaa age|dBA ~G3|Bee edB|def gfg|\
eaa age|dBA ~G3|Bee edB|dBA ~A2 z :|
